X: 58
T: Stomp Dance Song (l)
C: Anon.
%%abc-version 2.0
%%abcx-abcm2ps-target-version 5.9.1 (29 Sep 2008)
%%abc-creator hum2abc beta
%%abcx-conversion-date 2020/08/10 20:56:09
%%abc-copyright Electronic Copyright 2000 David Huron
%%abc-edited-by David Huron
%%abcx-initial-encoding-date August 29, 2000
%%humdrum-veritas 2741854885
%%humdrum-veritas-data 3813546464
%%linebreak <none>
%%barnumbers 0
L: 1/16
M: 2/4
Q: 1/4=69
K: Bb clef=bass
B,2 G, F, G, G, G, z[M:3/4] | 
B,2> C2 B,2 G,2 B, B, B, z[M:2/4] | 
B,2 G, F, G, G, G, z[M:7/8] | 
B,2> C2 B,2 G, G, B, B, B, z z2[M:5/8] | 
B,2 G, F, G, G, G, z G,2[M:2/4] | 
D2> B,2 C C C z | 
B,2 G, F, G, G, G, z[M:3/4] ]|:  
D2> B,2 C2 B, G, B, B, B, z[M:2/4] [I:setbarnb 9]| 
B,2 G, F, G, G, G, z[M:3/4] | 
F,2> F,2 F, F, F,2 C C C z[M:2/4] | 
B,2 G, F, G, G, G, z :|]  


